packages/core/src/svgs/shx.svg

<svg width="24" height="24" viewBox="0 0 24 24" fill="none" xmlns="http://www.w3.org/2000/svg">
<g clip-path="url(#clip0_31_18792)">
<path d="M0 0H24V24H0V0Z" fill="#F0F3FA"/>
<path d="M9.30425 4.71436L5.58425 17.5458C5.56831 17.5978 5.56468 17.6529 5.57365 17.7066C5.58262 17.7603 5.60395 17.8112 5.63595 17.8552C5.66795 17.8993 5.70974 17.9353 5.75804 17.9604C5.80634 17.9856 5.85981 17.9991 5.91425 18.0001H18.0857C18.3128 18.0001 18.4757 17.7772 18.4157 17.5501L14.7857 4.71436H13.6714L13.8514 5.5715H12.8571V4.71436H11.1428V5.5715H10.26L10.3885 4.71436H9.29997H9.30425Z" fill="url(#paint0_linear_31_18792)"/>
<path d="M18.0771 16.3115L12.0085 13.0886V4.71436H12.8571V5.5715H13.8557L13.6757 4.71436H14.79L18.0771 16.3115Z" fill="url(#paint1_linear_31_18792)"/>
<path d="M5.9314 16.3115L12 13.0886V4.71436H11.3914V5.5715H10.1485L10.3328 4.71436H9.21854L5.9314 16.3115Z" fill="url(#paint2_linear_31_18792)"/>
</g>
<defs>
<linearGradient id="paint0_linear_31_18792" x1="12" y1="4.71436" x2="12" y2="18.4286" gradientUnits="userSpaceOnUse">
<stop offset="0.64" stop-color="#054DC9"/>
<stop offset="1" stop-color="#0B3299"/>
</linearGradient>
<linearGradient id="paint1_linear_31_18792" x1="12.0085" y1="5.74293" x2="15.0428" y2="16.7401" gradientUnits="userSpaceOnUse">
<stop stop-color="#0556D9"/>
<stop offset="0.77" stop-color="#0A2993"/>
</linearGradient>
<linearGradient id="paint2_linear_31_18792" x1="5.45997" y1="5.49436" x2="12.2271" y2="12.7415" gradientUnits="userSpaceOnUse">
<stop stop-color="#025EE3"/>
<stop offset="1" stop-color="#0E2FA2"/>
</linearGradient>
<clipPath id="clip0_31_18792">
<rect width="24" height="24" fill="white"/>
</clipPath>
</defs>
</svg>

<svg xmlns="http://www.w3.org/2000/svg" width="24" height="24" fill="none" viewBox="0 0 24 24"><g clip-path="url(#a)"><path fill="#F0F3FA" d="M0 0h24v24H0z"/><path fill="url(#b)" d="m9.304 4.714-3.72 12.832a.35.35 0 0 0 .33.454h12.172c.227 0 .39-.223.33-.45l-3.63-12.836H13.67l.18.857h-.994v-.857h-1.714v.857h-.883l.129-.857H9.3z"/><path fill="url(#c)" d="m18.077 16.311-6.069-3.222V4.714h.85v.857h.998l-.18-.857h1.114z"/><path fill="url(#d)" d="M5.931 16.311 12 13.09V4.714h-.609v.857H10.15l.184-.857H9.219z"/></g><defs><linearGradient id="b" x1="12" x2="12" y1="4.714" y2="18.429" gradientUnits="userSpaceOnUse"><stop offset=".64" stop-color="#054DC9"/><stop offset="1" stop-color="#0B3299"/></linearGradient><linearGradient id="c" x1="12.008" x2="15.043" y1="5.743" y2="16.74" gradientUnits="userSpaceOnUse"><stop stop-color="#0556D9"/><stop offset=".77" stop-color="#0A2993"/></linearGradient><linearGradient id="d" x1="5.46" x2="12.227" y1="5.494" y2="12.742" gradientUnits="userSpaceOnUse"><stop stop-color="#025EE3"/><stop offset="1" stop-color="#0E2FA2"/></linearGradient><clipPath id="a"><path fill="#fff" d="M0 0h24v24H0z"/></clipPath></defs></svg>
